!!!!SEGMENT: pl-wnifc--6020-n--002_elsner-jozef--duma-jednej-litewski.krn
!!!cenid: 18xx:3907
!!!COM: Elsner, Józef
!!!COM-rismID: pe30000957
!!!CDT: 1769/06/01-1854/04/18
!!!CNT: Polish
!!!OTL: Duma Jednej Litewki
!!!PDT:
!!!AGN:
!!!SMS-siglum: PL-Wnifc
!!!SMS-shelfmark: 6020/n
!!!SMS-variant:
!!!SMS-altvar:
!!!SMS-shelfwork: 002 W
!!!NIFC-rismSourceID: 1001132999
!!!NIFC-islandoraID: nifc:212574
!!!URL-pdf-islandora: https://repozytorium.nifc.pl/islandora/object/nifc%3A212574/datastream/PDF/view
!!!URL-scan: https://polish.musicsources.pl/pl/lokalizacje/galeria/druki-muzyczne/16847 @EN{Scan on Polish Music Sources Website} @PL{Skany w portalu Dziedzictwo Muzyki Polskiej w otwartym dostępie}
!!!ONB-nifc: UWAGA: s. 6-7
!!!AIN: 1 clavi 1 vox
!!!key: f
**kern	**kern	**dynam	**kern	**text	**text
*part2	*part2	*part2	*part1	*part1	*part1
*staff3	*staff2	*	*staff1	*staff1	*staff1
*I"Klawikord	*I"Klawikord	*	*I"[Voce]	*	*
*I'clavicordo	*I'clavicordo	*	*I'V	*	*
*ICklav	*ICklav	*	*ICvox	*	*
*Iclavi	*Iclavi	*	*Ivox	*	*
*clefF4	*clefG2	*	*clefG2	*	*
*k[b-e-a-d-]	*k[b-e-a-d-]	*	*k[b-e-a-d-]	*	*
*f:	*f:	*	*f:	*	*
*M3/8	*M3/8	*	*M3/8	*	*
=1	=1	=1	=1	=1	=1
!!LO:TX:t=P:problem:system decoration wg źródła	!	!	!	!	!
*tremolo	*	*	*	*	*
!	!LO:TX:b:i:t=afflitto	!	!LO:TX:B:a:t=Adagio	!	!
(16F\LL 16A-	(16ff\LL	.	4.r	.	.
16c\)	16cc\JJ)	.	.	.	.
(16F\ 16A-	16r	.	.	.	.
16c\)	16cc\	<	.	.	.
.	16qee-/	.	.	.	.
(16F\ 16A-	(16dd-\LL	[[	.	.	.
16c\JJ)	16cc\JJ)	.	.	.	.
=2	=2	=2	=2	=2	=2
(16En\LL 16G 16B-	(16gg\LL	.	4.r	.	.
16c\)	16cc\JJ)	.	.	.	.
(16E\ 16G 16B-	16r	.	.	.	.
16c\)	16cc\	<	.	.	.
.	16qee-/	.	.	.	.
(16E\ 16G 16B-	16dd-\LL	.	.	.	.
16c\JJ)	16cc\JJ	[	.	.	.
=3	=3	=3	=3	=3	=3
(16F\LL 16A-	16r	.	4.r	.	.
16c\)	16dd-'\	.	.	.	.
(16F\ 16A-	16r	.	.	.	.
16c\)	16ff'\	.	.	.	.
(16F\ 16A-	16r	.	.	.	.
16c\JJ)	16aa-'\	.	.	.	.
=4	=4	=4	=4	=4	=4
!	!LO:N:vis=8..	!	!	!	!
(16En\LL 16G	(8.gg\L	.	4.r	.	.
16c\)	.	.	.	.	.
(16E\ 16G	.	.	.	.	.
*	*Xtuplet	*	*	*	*
16c\)	48ff\LL	.	.	.	.
.	48een\	.	.	.	.
.	48ddn\JJ)	.	.	.	.
(16E\ 16G	8cc\J	.	.	.	.
16c\JJ)	.	.	.	.	.
=5	=5	=5	=5	=5	=5
*^	*	*	*	*	*
4.An/	16E-X\LL 16G-X	16r	.	4.r	.	.
.	16c\	8aan'\L	<	.	.	.
.	16E-\ 16G-	.	.	.	.	.
.	16c\	8aa'\	.	.	.	.
.	16E-\ 16G-	.	.	.	.	.
.	16c\JJ	16aa'\Jk	[	.	.	.
*v	*v	*	*	*	*	*
=6	=6	=6	=6	=6	=6
16D-\LL 16F	16r	.	4.r	.	.
16B-\	8bb-'\L	.	.	.	.
16D-\ 16F	.	.	.	.	.
16B-\	8bb-'\	.	.	.	.
16D-\ 16F	.	.	.	.	.
16B-\JJ	16ccc'\Jk	f	.	.	.
=7	=7	=7	=7	=7	=7
8BBB-/ 8BB-	16.ddd-'\LL	.	4.r	.	.
.	32ccc\JJk	.	.	.	.
*	*Xtuplet	*	*	*	*
8r	24ddd-'\LL	>	.	.	.
.	24ccc'\	.	.	.	.
.	[24bb-\JJ	.	.	.	.
8r	24bb-\LL]	.	.	.	.
.	24aa-'\	.	.	.	.
.	24ff'\JJ	]	.	.	.
=8	=8	=8	=8	=8	=8
(16C\LL 16F 16A-	16r	.	4.r	.	.
16c\	16aa-'\	p	.	.	.
16C\ 16F 16A-	16r	.	.	.	.
16c\	16ccc'\	.	.	.	.
16C\ 16En 16A-	16r	.	.	.	.
16c\JJ)	16een'\	.	.	.	.
!!LO:LB:g=original	!	!	!	!	!
=9	=9	=9	=9	=9	=9
16F\LL 16A-	(16ff\LL	.	4.r	.	.
16c\	16cc\JJ)	.	.	.	.
16F\ 16A-	16r	.	.	.	.
16c\	16aa-\	.	.	.	.
.	8qaa-/	>	.	.	.
16C\ 16En 16G	(16gg\LL	.	.	.	.
16B-\JJ	16een\JJ)	]	.	.	.
=10	=10	=10	=10	=10	=10
16F\LL 16A-	(16ff\LL	.	4.r	.	.
16c\	16cc\JJ)	.	.	.	.
16F\ 16A-	16r	.	.	.	.
16c\	16aa-\	.	.	.	.
.	8qaa-/	>	.	.	.
16C\ 16En 16G	(16gg\LL	.	.	.	.
16B-\JJ	16een\JJ)	]	.	.	.
=11	=11	=11	=11	=11	=11
16F\LL 16A-	8ff\L	.	4.r	.	.
16c\	.	.	.	.	.
16C\ 16F	8a-\ 8cc 8ff	f	.	.	.
16A-\	.	.	.	.	.
16AA-\ 16C	8a-\J 8cc 8ff	.	.	.	.
16F\JJ	.	.	.	.	.
=12	=12	=12	=12	=12	=12
4FFF/ 4FF	4a-\ 4cc 4ff	.	4.r	.	.
8r	8r	.	.	.	.
=13||	=13||	=13||	=13||	=13||	=13||
(16F\LL 16A-	16ff\LL	pp	8cc\	Gdym	By-
16c\	16cc\JJ	.	.	.	.
16F\ 16A-	16r	.	8cc\	się	-łam
16c\	16cc\	.	.	.	.
.	16qdd-/	.	.	.	.
16F\ 16A-	16dd-\LL	.	8cc\	ro-	ko-
16c\JJ)	16cc\JJ	.	.	.	.
=14	=14	=14	=14	=14	=14
(16F\LL 16A-	16r	.	8bn/	-dzi-	-cha-
16Bn\	16aa-'\	.	.	.	.
16En\ 16G	16r	.	8cc/	-ła	-ną
16c\	16gg'\	.	.	.	.
16E\ 16G	16r	.	8b-X/	na-	od
16c\JJ)	16bb-'\	.	.	.	.
=15	=15	=15	=15	=15	=15
(16F\LL 16A-	16r	.	8.a-/L	-tu-	do-
16c\	16aa-\	.	.	.	.
16G\ 16B-	16r	.	.	.	.
16d-\	16gg\	.	16g/Jk	.	.
16A-\ 16c	16r	.	8f/	-ra	-brey
16f\JJ)	16ff\	.	.	.	.
=16	=16	=16	=16	=16	=16
(16B-\LL 16d-	16r	.	16f/LL	rze-	ma-
16g\	16een\	.	16en/JJ	.	.
16B-\ 16d-	16r	.	8e/	-kła	-tki
16g\	16gg\	.	.	.	.
16B-\ 16d-	16r	.	8r	.	.
16g\JJ)	16bb-\	.	.	.	.
=17	=17	=17	=17	=17	=17
(16En\LL 16G 16B-	16ddd-\LL	.	8dd-\	bio-	pie-
16d-\	16gg\JJ	.	.	.	.
16E\ 16G 16B-	16r	.	8cc\	-rąc	-ścił
16d-\	16gg\	.	.	.	.
.	8qbb-/	.	.	.	.
16E\ 16G 16B-	16aa-\LL	.	8b-/	mnie	mnie
16d-\JJ)	16gg\JJ	.	.	.	.
=18	=18	=18	=18	=18	=18
(16En\LL 16G 16B-	16r	.	8b-/	na	oy-
16d-\	16bb-\	.	.	.	.
16E\ 16G 16B-	16r	.	8a-/	swo-	-ciec
16d-\	16aa-\	.	.	.	.
16E\ 16G 16B-	16r	.	8g/	-ie	sę-
16d-\JJ)	16gg\	.	.	.	.
=19	=19	=19	=19	=19	=19
(16F\LL 16A-	16r	.	16.g/LL	rę-	-dzi-
16c\	8ff\L	<	.	.	.
.	.	.	32a-/JJk	.	.
16F\ 16A-	.	.	8f/	-ce:	-wy:
16c\	8ff\	.	.	.	.
16F\ 16A-	.	.	8r	.	.
16c\JJ)	16gg\Jk	[	.	.	.
!!LO:LB:g=original	!	!	!	!	!
=20	=20	=20	=20	=20	=20
(16F\LL 16A-	(16.gg\LL	f	4.r	.	.
16c\	.	.	.	.	.
.	32aa-\JJk	.	.	.	.
16F\ 16A-	8ff\)	.	.	.	.
16c\	.	.	.	.	.
16F\ 16A-	8r	.	.	.	.
16c\JJ)	.	.	.	.	.
=21	=21	=21	=21	=21	=21
(16F\LL 16A-	16ff\LL	p	8cc\	bę-	ży-
16c\	16cc\JJ	.	.	.	.
16F\ 16A-	16r	.	8cc\	-dziesz	-łam
16c\	16cc\	.	.	.	.
.	16qee-/	.	.	.	.
16F\ 16A-	16dd-\LL	.	8cc\	wkło-	spo-
16c\JJ)	16cc\JJ	.	.	.	.
=22	=22	=22	=22	=22	=22
(16F\LL 16A-	16r	.	8bn/	-po-	-koy-
16Bn\	16aa-\	.	.	.	.
16En\ 16G	16r	.	8cc\	-tach	-nie,
16c\	16gg\	.	.	.	.
16E-X\ 16G 16B-X	16r	.	8dd-X\	dni	wśród
16d-\JJ)	16ddd-\	.	.	.	.
=23	=23	=23	=23	=23	=23
(16E-\LL 16G 16B-	16r	.	(8.dd-\L	tw-	wie-
16d-\	16ddd-\	.	.	.	.
16E-\ 16A-	16r	.	.	.	.
16c\	16ccc\	.	16cc\Jk)	.	.
16E-\ 16G	16r	.	8b-/	-ie	-skiey
16B-\JJ)	16bb-\	.	.	.	.
=24	=24	=24	=24	=24	=24
(16C\LL 16E-	16r	.	(16ee-'\LL	wle-	cha-
*	*	*	*Xtuplet	*	*
16A-\	16eee-\	.	48dd-\L	.	.
.	.	.	48cc\	.	.
.	.	.	48b-\JJJ	.	.
16C\ 16E-	16r	.	8a-/)	-kła;	-tki;
16A-\	16ccc\	.	.	.	.
16C\ 16E-	16r	.	16r	.	.
16G-X\JJ)	16aan\	.	16an/	na-	był
=25	=25	=25	=25	=25	=25
16D-\LL 16F	16r	.	16b-/LL	-bie-	to
16B-\	16bb-\	.	16ff/	.	.
16D-\ 16F	16r	.	16ee-/	.	.
16B-\	16ff\	.	16dd-/JJ	.	.
*	*	*	*tuplet	*	*
!	!	!	!LO:TUP:b	!	!
16D-\ 16F	16r	.	24cc/LL	-dy	czas
.	.	.	24dd-/	.	.
16B-\JJ	16dd-\	.	.	.	.
.	.	.	24b-/JJ	.	.
=26	=26	=26	=26	=26	=26
16E-\LL 16A- 16c	16r	.	8a-/	wiek	bar-
16e-\	16cc\	.	.	.	.
16E-\ 16A- 16c	16r	.	8.e-/	twoy	-dzo
16e-\	16aa-\	.	.	.	.
16E-\ 16B-	16r	.	.	.	.
16d-\JJ	16gg\	.	(32f/LLL	po-	szczę-
.	.	.	32g/JJJ)	.	.
=27	=27	=27	=27	=27	=27
!	!	!	!LO:TX:t=P:problem:przekreślony obiegnik	!	!
(16A-\LL 16c	16aa-\LL	.	4a-S/	-świę-	-śli-
16e-\	16ee-\JJ	.	.	.	.
16A-\ 16c	16r	.	.	.	.
16e-\	16ee-\LL	>	.	.	.
.	16qqff/	.	.	.	.
16A-\ 16c	16ff\	.	16b-/LL	.	.
16e-\JJ)	16ee-\JJ	.	16cc/JJ	.	.
=28	=28	=28	=28	=28	=28
(16A-\LL 16c	16r	]	4a-/	-cę	-wy.
16e-\	(16ddn\LL	.	.	.	.
16A-\ 16c	16ee-\	.	.	.	.
16e-\	16ff\	.	.	.	.
16A-\ 16c	16gg\	.	8r	.	.
16e-\JJ)	16aa-\JJ)	.	.	.	.
=29	=29	=29	=29	=29	=29
(16G\LL 16B-	16bb-\LL	.	8b-\	do	od
16e-\	16ee-\JJ	.	.	.	.
16G\ 16B-	16r	.	8ee-\	lat	tąd
16e-\	16ee-\	.	.	.	.
.	16qgg/	.	.	.	.
16G\ 16B-	16ff\LL	.	8dd-\	pię-	się
16e-\JJ)	16ee-\JJ	.	.	.	.
!!LO:PB:g=original	!	!	!	!	!
=30	=30	=30	=30	=30	=30
(16A-\LL 16c	16r	.	16dd-\LL	-nas-	nu-
16e-\	(16cc\LL	.	16cc\JJ	.	.
16A-\ 16c	16ccc\)	.	8cc\	-tu,	-dna,
16e-\	(16a-\	.	.	.	.
16A-\ 16c	16aa-\)	.	8r	.	.
16e-\JJ)	16ee-`\JJ	.	.	.	.
=31	=31	=31	=31	=31	=31
(16G\LL 16B-	16bb-\LL	.	16b-\LL	sa-	ma
16e-\	16ee-\JJ	.	16ff\JJ	.	.
16G\ 16B-	16r	.	16ee-\LL	-me	mło-
16e-\	16ee-\	.	16dd-\JJ	.	.
!	!	!	!LO:TUP:a:problem:klamra łukowa i cyfra	!	!
.	16qgg/	.	.	.	.
16G\ 16B-	16ff\LL	.	24cc\LL	sło-	-dość
.	.	.	24ee-\	.	.
16e-\JJ)	16ee-\JJ	.	.	.	.
.	.	.	24dd-\JJ	.	.
=32	=32	=32	=32	=32	=32
(16A-\LL 16c	16r	.	16dd-\LL	-dy-	wle-
16e-\	(16cc\LL	.	16cc\JJ	.	.
16A-\ 16c	16ccc\)	.	8cc\	-cze	-cze,
16e-\	(16a-\	.	.	.	.
16A-\ 16c	16aa-\)	.	8r	.	.
16e-\JJ)	16ee-\JJ	.	.	.	.
=33	=33	=33	=33	=33	=33
(16En\LL 16G	16r	.	8cc\	słu-	za-
16c\	16g\LL	.	.	.	.
16E\ 16G	16gg\	.	(8.gg\	-ży-	-gi-
16c\	16b-\	.	.	.	.
16E\ 16G	16bb-\	.	.	.	.
16c\JJ)	16gg\JJ	.	16b-/)	-ły,	-nął
=34	=34	=34	=34	=34	=34
(16F\LL 16A-	16r	.	8a-/	w zy-	pier-
16c\	16aa-\	.	.	.	.
16F\ 16A-	16r	.	8g/	-ciu	-wszy
16c\	16gg\	.	.	.	.
16F\ 16A-	16r	.	8f/	po-	ślad
16c\JJ)	16ff\	.	.	.	.
=35	=35	=35	=35	=35	=35
(16D-\LL 16F	16r	.	4ff\	-dró-	dro-
16A-\	(16bn\LL	.	.	.	.
16D-\ 16F	16bb-\)	.	.	.	.
16A-\	(16b\	.	.	.	.
16D-\ 16F	16bb-\)	.	(>16.bn/LL	.	.
16A-\JJ)	16b\JJ	.	.	.	.
.	.	.	32cc/JJk)	.	.
=36	=36	=36	=36	=36	=36
4C/ 4En	16r	.	4cc\	-ży,	-gi,
.	(16cc\LL	.	.	.	.
.	16bn\	.	.	.	.
.	16cc\	.	.	.	.
8r	16ddn\	.	8r	.	.
.	16een\JJ)	.	.	.	.
=37	=37	=37	=37	=37	=37
*Xtremolo	*	*	*	*	*
8FF\L 8F	16f\LL	.	8ff\	lecz	dar-
.	16ff\	.	.	.	.
8FF\ 8F	16f\	.	8ff\	od	-mo-
.	16ff\	.	.	.	.
8FF\J 8F	16f\	.	8ff\	tąd	-iey
.	16ff\JJ	.	.	.	.
=38	=38	=38	=38	=38	=38
8EE-\L 8En	16en\LL	.	8een\	smu-	szu-
.	16ee-\	.	.	.	.
8FF\ 8F	16f\	.	8ff\	-tne	-kam
.	16ff\	.	.	.	.
8EE-X\J 8E-X	16e-X\	.	8ee-X\	go-	no-
.	16ee-\JJ	.	.	.	.
=39	=39	=39	=39	=39	=39
8DD-/L 8D-X	16d-X\LL	.	(8dd-X\L	-dzi-	-gi
.	16dd-\	.	.	.	.
8CC/J 8C	16c\	.	8cc\J)	.	.
.	16cc\JJ	.	.	.	.
.	8qB-/	rf	.	.	.
8c\	8en/ 8g 8b-	.	8b-\	-ny	ka-
!!LO:LB:g=original	!	!	!	!	!
=40	=40	=40	=40	=40	=40
.	.	.	8qb-/	.	.
8d-\	8f/ 8a-	.	8a-/	li-	-le-
8d-\	8f/ 8a-	.	8a-/	-czę	-czę
8r	8r	.	8r	.	.
=41	=41	=41	=41	=41	=41
4BBB-/ 4BB-	4G/ 4d- 4g-X	rf	8g-X/	wszy-	tra-
.	.	.	8b-/	-stko	-fia-
8r	8r	.	8dd-/	do-	-jąc
=42	=42	=42	=42	=42	=42
8r	8r	.	8dd-/	-bie-	tyl-
8BBB-/L 8BBn	8A-X/L 8dn 8f	.	8f/	-dy	-ko
8BBB-/J 8BB	8A-/J 8d 8f	.	8f/	mnie	na
=43	=43	=43	=43	=43	=43
4.CC/ 4.C	16A-/LL 16c	.	4f/	słu-	gło-
.	16f/	.	.	.	.
.	(16A-/ 16c	.	.	.	.
.	16f/	.	.	.	.
.	16G/ 16B-	.	16a-/LL	.	.
.	16en/JJ)	.	16g/JJ	.	.
=44	=44	=44	=44	=44	=44
!	!LO:TX:t=P:problem: mixed beam	!	!	!	!
4FFF/ 4FF	16A-/LL 16c	.	4f/	-ży.	-gi.
.	(16cc\	<	.	.	.
.	16bn\	.	.	.	.
.	16cc\	.	.	.	.
8r	16ddn\	.	8r	.	.
.	16ee-\JJ)	[	.	.	.
=45	=45	=45	=45	=45	=45
16F\LL 16A-	(16ff\LL	.	4.r	.	.
16c\	16cc\JJ)	.	.	.	.
16F\ 16A-	16r	.	.	.	.
16c\	16aa-\	.	.	.	.
.	16qaa-/	.	.	.	.
16C\ 16En 16G	(16gg\LL	.	.	.	.
16B-\JJ	16een\JJ)	.	.	.	.
=46	=46	=46	=46	=46	=46
16F\LL 16A-	16ff\LL	.	4.r	.	.
16c\	16cc\JJ	.	.	.	.
16F\ 16A-	16r	.	.	.	.
16c\	16aa-\	.	.	.	.
.	16qbb-/	.	.	.	.
(16C\ 16En 16G	16gg\LL	.	.	.	.
16B-\JJ)	16een\JJ	.	.	.	.
=47	=47	=47	=47	=47	=47
(16F\LL 16A-	16r	.	4.r	.	.
16c\)	16ccc\	.	.	.	.
(16BB-\ 16D-	16r	.	.	.	.
16G\)	16ddd-\	.	.	.	.
(16C\ 16G	16r	.	.	.	.
16B-\JJ)	16een\	.	.	.	.
=48	=48	=48	=48	=48	=48
16F\LL 16A-	8ff\L	f	4.r	.	.
16c\	.	.	.	.	.
16D-\ 16F	8a-\ 8cc 8ff	.	.	.	.
16A-\	.	.	.	.	.
16AA-\ 16C	8a-\J 8cc 8ff	.	.	.	.
16F\JJ	.	.	.	.	.
=49	=49	=49	=49	=49	=49
!	!LO:TX:b:i:t=dal Segno	!	!	!	!
4FFF/ 4FF	4a-\ 4cc 4ff	.	4.r	.	.
8r	8r	.	.	.	.
==	==9	==	==	==	==
*-	*-	*-	*-	*-	*-
!!!system-decoration: [(s1){s2,s3}]
!!!RDF**kern: > = above
!!!RDF**kern: < = below
!!!ENC: Marta Opryszak
!!!END: 2022-07-26
!!!ENC: Jan Barakat
!!!END: 2022-08-23
!!!YEC: Copyright 2022 Narodowy Instytut Fryderyka Chopina (https://polishscores.org)
!!!YEM: Licence CC BY 4.0 (https://creativecommons.org/licenses/by/4.0)
